src/assets/icons/icon-react.svg

<svg width="526" height="472" fill="none" xmlns="http://www.w3.org/2000/svg"><path d="M525.5 236c0-42-42.875-72.625-104.12-91.875 14-62.125 8.75-114.62-27.125-135.62s-84.875.875-131.25 43.75C216.63 9.38 167.63-12.495 131.755 8.505s-41.125 73.5-27.125 135.62C43.38 163.375.51 194 .51 236s42.875 72.625 104.12 91.875c-14 62.125-8.75 114.62 27.125 135.62 9.625 5.25 20.125 7.875 30.625 7.875 30.625 0 66.5-20.125 100.62-52.5 34.125 31.5 70 52.5 100.62 52.5 10.5 0 21-2.625 30.625-7.875 35.875-21 41.125-73.5 27.125-135.62C482.62 308.625 525.49 278 525.49 236h.01ZM376.75 39.12c17.5 10.5 21.875 46.375 11.375 96.25-19.25-4.375-40.25-7.875-61.25-9.625-12.25-17.5-25.375-33.25-39.375-48.125 37.625-34.125 71.75-49 89.25-38.5Zm-7 238.88c3.5 8.75 6.125 16.625 8.75 25.375l-26.25 5.25c2.625-5.25 6.125-9.625 8.75-14.875 3.5-6.125 6.125-11.375 8.75-15.75Zm-38.5-2.625c-7.875 13.125-15.75 26.25-23.625 37.625-14.875.875-28.875 1.75-44.625 1.75s-29.75-.875-44.625-1.75c-7.875-12.25-15.75-24.5-23.625-37.625s-14.875-26.25-21-39.375c6.125-13.125 13.125-26.25 21-39.375s15.75-26.25 23.625-37.625c14-.875 28.875-1.75 44.625-1.75s29.75.875 44.625 1.75c7.875 12.25 15.75 24.5 23.625 37.625s14.875 26.25 21 39.375c-6.125 13.125-13.125 26.25-21 39.375Zm-68.25 94.5c-6.125-6.125-11.375-13.125-17.5-20.125h35c-6.125 7-11.375 13.125-17.5 20.125Zm-98.875-77c2.625 5.25 6.125 9.625 8.75 14.875l-26.25-5.25c2.625-7.875 5.25-16.625 8.75-25.375 3.5 5.25 6.125 10.5 8.75 15.75ZM156.25 194c-3.5-8.75-6.125-16.625-8.75-25.375l26.25-5.25c-2.625 5.25-6.125 9.625-8.75 14.875-3.5 6.125-6.125 11.375-8.75 15.75ZM263 102.125c6.125 6.125 11.375 13.125 17.5 20.125h-35c6.125-7 11.375-13.125 17.5-20.125Zm98.875 77c-2.625-5.25-6.125-9.625-8.75-14.875l26.25 5.25c-2.625 7.875-5.25 16.625-8.75 25.375-3.5-5.25-6.125-10.5-8.75-15.75Zm-212.62-140c3.5-1.75 7.875-3.5 13.125-3.5 19.25 0 46.375 14.875 76.125 42-13.125 14.875-26.25 30.625-39.375 48.125-21 2.625-42 5.25-61.25 9.625-10.5-49.875-6.125-85.75 11.375-96.25Zm-113.75 196.88c0-20.125 29.75-42 77.875-57.75 6.125 19.25 13.125 38.5 21.875 57.75-8.75 19.25-15.75 38.5-21.875 57.75-48.125-15.75-77.875-37.625-77.875-57.75Zm113.75 196.88c-17.5-10.5-21.875-46.375-11.375-96.25 19.25 4.375 40.25 7.875 61.25 9.625 12.25 17.5 25.375 33.25 39.375 48.125-37.625 34.125-71.75 49-89.25 38.5Zm227.5 0c-17.5 10.5-51.625-4.375-89.25-38.5 13.125-14.875 26.25-30.625 39.375-48.125 21-2.625 42-5.25 61.25-9.625 10.5 49.875 6.125 85.75-11.375 96.25Zm35.875-139.12c-6.125-19.25-13.125-38.5-21.875-57.75 8.75-19.25 15.75-38.5 21.875-57.75 48.125 15.75 77.875 37.625 77.875 57.75s-29.75 42-77.875 57.75Z" fill="#000"/><path d="M315.5 236c0 28.996-23.504 52.5-52.5 52.5s-52.5-23.504-52.5-52.5 23.504-52.5 52.5-52.5 52.5 23.504 52.5 52.5Z" fill="#000"/></svg>

<svg width="526" height="472" viewBox="0 0 526 472" fill="none" xmlns="http://www.w3.org/2000/svg">
<path d="M525.5 236C525.5 194 482.625 163.375 421.38 144.125C435.38 82 430.13 29.505 394.255 8.50498C358.38 -12.495 309.38 9.37998 263.005 52.255C216.63 9.37998 167.63 -12.495 131.755 8.50498C95.8798 29.505 90.6298 82.005 104.63 144.125C43.3798 163.375 0.509766 194 0.509766 236C0.509766 278 43.3848 308.625 104.63 327.875C90.6298 390 95.8798 442.495 131.755 463.495C141.38 468.745 151.88 471.37 162.38 471.37C193.005 471.37 228.88 451.245 263 418.87C297.125 450.37 333 471.37 363.62 471.37C374.12 471.37 384.62 468.745 394.245 463.495C430.12 442.495 435.37 389.995 421.37 327.875C482.62 308.625 525.49 278 525.49 236H525.5ZM376.75 39.12C394.25 49.62 398.625 85.495 388.125 135.37C368.875 130.995 347.875 127.495 326.875 125.745C314.625 108.245 301.5 92.495 287.5 77.62C325.125 43.495 359.25 28.62 376.75 39.12ZM369.75 278C373.25 286.75 375.875 294.625 378.5 303.375L352.25 308.625C354.875 303.375 358.375 299 361 293.75C364.5 287.625 367.125 282.375 369.75 278ZM331.25 275.375C323.375 288.5 315.5 301.625 307.625 313C292.75 313.875 278.75 314.75 263 314.75C247.25 314.75 233.25 313.875 218.375 313C210.5 300.75 202.625 288.5 194.75 275.375C186.875 262.25 179.875 249.125 173.75 236C179.875 222.875 186.875 209.75 194.75 196.625C202.625 183.5 210.5 170.375 218.375 159C232.375 158.125 247.25 157.25 263 157.25C278.75 157.25 292.75 158.125 307.625 159C315.5 171.25 323.375 183.5 331.25 196.625C339.125 209.75 346.125 222.875 352.25 236C346.125 249.125 339.125 262.25 331.25 275.375ZM263 369.875C256.875 363.75 251.625 356.75 245.5 349.75H263H280.5C274.375 356.75 269.125 362.875 263 369.875ZM164.125 292.875C166.75 298.125 170.25 302.5 172.875 307.75L146.625 302.5C149.25 294.625 151.875 285.875 155.375 277.125C158.875 282.375 161.5 287.625 164.125 292.875ZM156.25 194C152.75 185.25 150.125 177.375 147.5 168.625L173.75 163.375C171.125 168.625 167.625 173 165 178.25C161.5 184.375 158.875 189.625 156.25 194ZM263 102.125C269.125 108.25 274.375 115.25 280.5 122.25H263H245.5C251.625 115.25 256.875 109.125 263 102.125ZM361.875 179.125C359.25 173.875 355.75 169.5 353.125 164.25L379.375 169.5C376.75 177.375 374.125 186.125 370.625 194.875C367.125 189.625 364.5 184.375 361.875 179.125ZM149.255 39.125C152.755 37.375 157.13 35.625 162.38 35.625C181.63 35.625 208.755 50.5 238.505 77.625C225.38 92.5 212.255 108.25 199.13 125.75C178.13 128.375 157.13 131 137.88 135.375C127.38 85.5 131.755 49.625 149.255 39.125ZM35.5048 236.005C35.5048 215.88 65.2548 194.005 113.38 178.255C119.505 197.505 126.505 216.755 135.255 236.005C126.505 255.255 119.505 274.505 113.38 293.755C65.2548 278.005 35.5048 256.13 35.5048 236.005ZM149.255 432.885C131.755 422.385 127.38 386.51 137.88 336.635C157.13 341.01 178.13 344.51 199.13 346.26C211.38 363.76 224.505 379.51 238.505 394.385C200.88 428.51 166.755 443.385 149.255 432.885ZM376.755 432.885C359.255 443.385 325.13 428.51 287.505 394.385C300.63 379.51 313.755 363.76 326.88 346.26C347.88 343.635 368.88 341.01 388.13 336.635C398.63 386.51 394.255 422.385 376.755 432.885ZM412.63 293.765C406.505 274.515 399.505 255.265 390.755 236.015C399.505 216.765 406.505 197.515 412.63 178.265C460.755 194.015 490.505 215.89 490.505 236.015C490.505 256.14 460.755 278.015 412.63 293.765Z" fill="black"/>
<path d="M315.5 236C315.5 264.996 291.996 288.5 263 288.5C234.004 288.5 210.5 264.996 210.5 236C210.5 207.004 234.004 183.5 263 183.5C291.996 183.5 315.5 207.004 315.5 236Z" fill="black"/>
</svg>
